X:195
T: THE FANCY FAIR
M: C|
L: 1/8
B: O'NEILL'S 1749
N: "collected by Ennis
Z: Transcribed by A. LEE WORMAN
K: G
d>c|(3Bcd) c>A B>GA>F|G>BA>F G2 (3def)|g>ba>f g>ed>B|c>BA>B c>ed>c|
B>dc>A B>GA>F|G2 fg|(3fag) (3fed) (3egf) (3edc)|d>fe>c d2:|
|:d>c|(3Bcd) g>a b>gd>c|B2(f<a) (f<a) d>c|(3Bcd) g>a b>gd>B|G2 (e<g) (e<
g) (3def)|
(3gag) (3fed) (3gag) (3fed)|(3gag) (3fed) d>cB>A|(3Bcd) (3gfe) d>cB>A|G>
cA>F G2:|
